vendor/shopware/storefront/Resources/app/storefront/dist/assets/icon/default/moon.svg

<svg xmlns="http://www.w3.org/2000/svg" width="24" height="24" viewBox="0 0 24 24">
  <path fill="#758CA3" fill-rule="evenodd" d="M4.64744463,20.0771332 C7.99791974,18.7641184 10.2405718,15.5674336 10.2405718,11.9568299 C10.2405718,8.34728306 7.9977748,5.15070221 4.64744462,3.8377441 C4.45983943,3.76727666 4.2915447,3.63989769 4.17092629,3.46111758 C3.86204029,3.00328804 3.98278289,2.3817423 4.44061243,2.0728563 C6.43104731,0.7299603 8.78236364,6.66133815e-16 11.2405718,6.66133815e-16 C17.9139013,6.66133815e-16 23.3274345,5.35063488 23.3274345,11.9580475 C23.3274345,18.5644481 17.9136938,23.9148773 11.2405718,23.9148773 C8.78236364,23.9148773 6.43104731,23.184917 4.44061243,21.842021 C3.98278289,21.533135 3.86204029,20.9115893 4.17092629,20.4537598 C4.2915447,20.2749797 4.45983944,20.1476007 4.64744463,20.0771332 Z M7.14131042,21.0571844 C8.41515696,21.6179984 9.80490799,21.9148773 11.2405718,21.9148773 C16.8143565,21.9148773 21.3274345,17.4545779 21.3274345,11.9580475 C21.3274345,6.46047027 16.81453,2 11.2405718,2 C9.8049089,2 8.41515871,2.29687857 7.14131283,2.85769189 C10.254133,4.78392056 12.2405718,8.184972 12.2405718,11.9568299 C12.2405718,15.7295775 10.2542351,19.1308721 7.14131042,21.0571844 Z"/>
</svg>

<svg xmlns="http://www.w3.org/2000/svg" width="24" height="24" viewBox="0 0 24 24"><path fill="#758CA3" fill-rule="evenodd" d="M4.6474 20.0771c3.3505-1.313 5.5932-4.5097 5.5932-8.1203 0-3.6095-2.2428-6.8061-5.5932-8.119a.9954.9954 0 0 1-.4765-.3767c-.3089-.4578-.1881-1.0794.2697-1.3882C6.431.7299 8.7824 0 11.2406 0c6.6733 0 12.0868 5.3506 12.0868 11.958 0 6.6064-5.4137 11.9569-12.0868 11.9569-2.4582 0-4.8096-.73-6.8-2.0729-.4578-.3089-.5786-.9304-.2697-1.3882a.9954.9954 0 0 1 .4765-.3767zm2.494.98c1.2738.5609 2.6635.8578 4.0992.8578 5.5738 0 10.0868-4.4603 10.0868-9.9569C21.3274 6.4605 16.8145 2 11.2406 2c-1.4357 0-2.8254.2969-4.0993.8577 3.1128 1.9262 5.0993 5.3273 5.0993 9.0991 0 3.7728-1.9864 7.174-5.0993 9.1004z"/></svg>
